gnome/icons/Varda/apps/scalable/inkscape.svg

<?xml version="1.0" encoding="UTF-8" standalone="no"?>
<svg
   xmlns:dc="http://purl.org/dc/elements/1.1/"
   xmlns:cc="http://creativecommons.org/ns#"
   xmlns:rdf="http://www.w3.org/1999/02/22-rdf-syntax-ns#"
   xmlns:svg="http://www.w3.org/2000/svg"
   xmlns="http://www.w3.org/2000/svg"
   xmlns:sodipodi="http://sodipodi.sourceforge.net/DTD/sodipodi-0.dtd"
   xmlns:inkscape="http://www.inkscape.org/namespaces/inkscape"
   width="64px"
   height="64px"
   viewBox="0 0 64 64"
   version="1.1"
   id="svg36019"
   sodipodi:docname="inkscape.svg"
   inkscape:version="1.0.2 (e86c870879, 2021-01-15)">
  <metadata
     id="metadata36025">
    <rdf:RDF>
      <cc:Work
         rdf:about="">
        <dc:format>image/svg+xml</dc:format>
        <dc:type
           rdf:resource="http://purl.org/dc/dcmitype/StillImage" />
      </cc:Work>
    </rdf:RDF>
  </metadata>
  <defs
     id="defs36023" />
  <sodipodi:namedview
     pagecolor="#ffffff"
     bordercolor="#666666"
     borderopacity="1"
     objecttolerance="10"
     gridtolerance="10"
     guidetolerance="10"
     inkscape:pageopacity="0"
     inkscape:pageshadow="2"
     inkscape:window-width="2560"
     inkscape:window-height="1403"
     id="namedview36021"
     showgrid="false"
     inkscape:zoom="10.429825"
     inkscape:cx="36.016025"
     inkscape:cy="27.437728"
     inkscape:window-x="0"
     inkscape:window-y="0"
     inkscape:window-maximized="1"
     inkscape:current-layer="surface1"
     inkscape:document-rotation="0" />
  <g
     id="surface1">
    <path
       style="fill:#0c0e11;fill-opacity:1;fill-rule:nonzero;stroke:none"
       d="M 31.765625,3.160156 C 31.019531,3.15625 30.304688,3.46875 29.800781,4.019531 L 3.34375,33.125 c -1.304688,1.433594 -0.664062,3.734375 1.191406,4.292969 l 10.015625,4.09375 c 3.640625,1.648437 -4.183593,3.085937 -4.296875,5.617187 0.328125,2.320313 5.621094,3.640625 8.265625,3.640625 6.617188,0 -1.320312,2.648438 1.324219,5.292969 3.308594,2.644531 9.261719,2.078125 9.261719,2.644531 0,1.46875 1.769531,2.648438 3.96875,2.648438 2.382812,-0.03906 8.597656,-2.648438 3.96875,-5.953125 -4.632813,-3.308594 15.875,-3.96875 8.597656,-8.601563 C 42.996094,44.816406 45.96875,42.5 50.269531,40.847656 l 8.695313,-3.429687 C 60.855469,36.878906 61.460938,34.558594 60.15625,33.125 L 33.699219,4.019531 C 33.21875,3.492188 32.546875,3.183594 31.835938,3.160156 c -0.02344,0 -0.04688,0 -0.07031,0 z m 0,0"
       id="path36000" />
    <path
       style="fill:#d0ebee;fill-opacity:1;fill-rule:nonzero;stroke:none"
       d="M 31.765625,3.160156 C 31.019531,3.15625 30.304688,3.46875 29.800781,4.019531 L 14.46875,20.886719 c 1.019531,1.207031 2.535156,2.296875 4.050781,0.78125 2.648438,-2.648438 7.9375,-2.648438 7.9375,-2.648438 l 2.648438,-5.289062 V 16.375 c 0,5.292969 5.289062,2.644531 5.289062,2.644531 0,0 5.292969,-5.289062 7.9375,0 2.21875,4.4375 6.296875,3.296875 7.554688,2.808594 L 33.699219,4.019531 C 33.21875,3.492188 32.546875,3.183594 31.835938,3.160156 c -0.02344,0 -0.04688,0 -0.07031,0 z m 0,0"
       id="path36002" />
    <path
       style="fill:#0c0e11;fill-opacity:1;fill-rule:nonzero;stroke:none"
       d="m 48.949219,46.800781 c 0,0 6.507812,-4.300781 8.605469,-0.105469 2.097656,4.199219 -8.605469,0.105469 -8.605469,0.105469 z m 0,0"
       id="path36004" />
    <path
       style="fill:#0c0e11;fill-opacity:1;fill-rule:nonzero;stroke:none"
       d="m 48.949219,49.449219 c 0,0 4.398437,2.195312 2.769531,4.664062 -1.632812,2.46875 -2.769531,-4.664062 -2.769531,-4.664062 z m 0,0"
       id="path36006" />
    <path
       style="fill:#0c0e11;fill-opacity:1;fill-rule:nonzero;stroke:none"
       d="m 15.875,52.09375 c 0,0 -5.957031,-1.972656 -5.523438,2.457031 0.4375,4.425781 5.523438,-2.457031 5.523438,-2.457031 z m 0,0"
       id="path36008" />
    <path
       style="fill:#733447;fill-opacity:1;fill-rule:nonzero;stroke:none"
       d="M 10.847656,34.292969 10.320312,35.5 31.75,44.875 53.179688,35.5 52.652344,34.292969 31.75,43.4375 Z m 0,0"
       id="path36010" />
    <path
       style="fill:#2e3436;fill-opacity:1;fill-rule:nonzero;stroke:none"
       d="m 31.691406,40.304688 h 0.117188 c 2.160156,0 3.910156,1.75 3.910156,3.910156 0,2.160156 -1.75,3.910156 -3.910156,3.910156 h -0.117188 c -2.160156,0 -3.910156,-1.75 -3.910156,-3.910156 0,-2.160156 1.75,-3.910156 3.910156,-3.910156 z m 0,0"
       id="path36012" />
    <path
       style="fill:#2e3436;fill-opacity:1;fill-rule:nonzero;stroke:none"
       d="m 10.542969,32.328125 h 0.07813 c 1.441406,0 2.609375,1.167969 2.609375,2.605469 0,1.441406 -1.167969,2.609375 -2.609375,2.609375 h -0.07813 c -1.4375,0 -2.605469,-1.167969 -2.605469,-2.609375 0,-1.4375 1.167969,-2.605469 2.605469,-2.605469 z m 0,0"
       id="path36014" />
    <path
       style="fill:#2e3436;fill-opacity:1;fill-rule:nonzero;stroke:none"
       d="m 52.878906,32.328125 h 0.07813 c 1.4375,0 2.605469,1.167969 2.605469,2.605469 0,1.441406 -1.167969,2.609375 -2.605469,2.609375 h -0.07813 c -1.441406,0 -2.609375,-1.167969 -2.609375,-2.609375 0,-1.4375 1.167969,-2.605469 2.609375,-2.605469 z m 0,0"
       id="path36016" />
  </g>
</svg>

<?xml version="1.0" encoding="UTF-8" standalone="no"?>
<svg
   xmlns:dc="http://purl.org/dc/elements/1.1/"
   xmlns:cc="http://creativecommons.org/ns#"
   xmlns:rdf="http://www.w3.org/1999/02/22-rdf-syntax-ns#"
   xmlns:svg="http://www.w3.org/2000/svg"
   xmlns="http://www.w3.org/2000/svg"
   xmlns:sodipodi="http://sodipodi.sourceforge.net/DTD/sodipodi-0.dtd"
   xmlns:inkscape="http://www.inkscape.org/namespaces/inkscape"
   width="64px"
   height="64px"
   viewBox="0 0 64 64"
   version="1.1"
   id="svg36019"
   sodipodi:docname="inkscape.svg"
   inkscape:version="0.92.4 (fd57863, 2020-04-02)">
  <metadata
     id="metadata36025">
    <rdf:RDF>
      <cc:Work
         rdf:about="">
        <dc:format>image/svg+xml</dc:format>
        <dc:type
           rdf:resource="http://purl.org/dc/dcmitype/StillImage" />
      </cc:Work>
    </rdf:RDF>
  </metadata>
  <defs
     id="defs36023" />
  <sodipodi:namedview
     pagecolor="#ffffff"
     bordercolor="#666666"
     borderopacity="1"
     objecttolerance="10"
     gridtolerance="10"
     guidetolerance="10"
     inkscape:pageopacity="0"
     inkscape:pageshadow="2"
     inkscape:window-width="726"
     inkscape:window-height="480"
     id="namedview36021"
     showgrid="false"
     inkscape:zoom="3.6875"
     inkscape:cx="32"
     inkscape:cy="32"
     inkscape:window-x="1014"
     inkscape:window-y="528"
     inkscape:window-maximized="0"
     inkscape:current-layer="svg36019" />
  <g
     id="surface1">
    <path
       style=" stroke:none;fill-rule:nonzero;fill:rgb(25.882354%,25.882354%,25.882354%);fill-opacity:1;"
       d="M 31.765625 3.160156 C 31.019531 3.15625 30.304688 3.46875 29.800781 4.019531 L 3.34375 33.125 C 2.039062 34.558594 2.679688 36.859375 4.535156 37.417969 L 14.550781 41.511719 C 18.191406 43.160156 10.367188 44.597656 10.253906 47.128906 C 10.582031 49.449219 15.875 50.769531 18.519531 50.769531 C 25.136719 50.769531 17.199219 53.417969 19.84375 56.0625 C 23.152344 58.707031 29.105469 58.140625 29.105469 58.707031 C 29.105469 60.175781 30.875 61.355469 33.074219 61.355469 C 35.457031 61.316406 41.671875 58.707031 37.042969 55.402344 C 32.410156 52.09375 52.917969 51.433594 45.640625 46.800781 C 42.996094 44.816406 45.96875 42.5 50.269531 40.847656 L 58.964844 37.417969 C 60.855469 36.878906 61.460938 34.558594 60.15625 33.125 L 33.699219 4.019531 C 33.21875 3.492188 32.546875 3.183594 31.835938 3.160156 C 31.8125 3.160156 31.789062 3.160156 31.765625 3.160156 Z M 31.765625 3.160156 "
       id="path36000" />
    <path
       style=" stroke:none;fill-rule:nonzero;fill:rgb(93.333334%,93.333334%,93.333334%);fill-opacity:1;"
       d="M 31.765625 3.160156 C 31.019531 3.15625 30.304688 3.46875 29.800781 4.019531 L 14.46875 20.886719 C 15.488281 22.09375 17.003906 23.183594 18.519531 21.667969 C 21.167969 19.019531 26.457031 19.019531 26.457031 19.019531 L 29.105469 13.730469 L 29.105469 16.375 C 29.105469 21.667969 34.394531 19.019531 34.394531 19.019531 C 34.394531 19.019531 39.6875 13.730469 42.332031 19.019531 C 44.550781 23.457031 48.628906 22.316406 49.886719 21.828125 L 33.699219 4.019531 C 33.21875 3.492188 32.546875 3.183594 31.835938 3.160156 C 31.8125 3.160156 31.789062 3.160156 31.765625 3.160156 Z M 31.765625 3.160156 "
       id="path36002" />
    <path
       style=" stroke:none;fill-rule:nonzero;fill:rgb(25.882354%,25.882354%,25.882354%);fill-opacity:1;"
       d="M 48.949219 46.800781 C 48.949219 46.800781 55.457031 42.5 57.554688 46.695312 C 59.652344 50.894531 48.949219 46.800781 48.949219 46.800781 Z M 48.949219 46.800781 "
       id="path36004" />
    <path
       style=" stroke:none;fill-rule:nonzero;fill:rgb(25.882354%,25.882354%,25.882354%);fill-opacity:1;"
       d="M 48.949219 49.449219 C 48.949219 49.449219 53.347656 51.644531 51.71875 54.113281 C 50.085938 56.582031 48.949219 49.449219 48.949219 49.449219 Z M 48.949219 49.449219 "
       id="path36006" />
    <path
       style=" stroke:none;fill-rule:nonzero;fill:rgb(25.882354%,25.882354%,25.882354%);fill-opacity:1;"
       d="M 15.875 52.09375 C 15.875 52.09375 9.917969 50.121094 10.351562 54.550781 C 10.789062 58.976562 15.875 52.09375 15.875 52.09375 Z M 15.875 52.09375 "
       id="path36008" />
    <path
       style="stroke:none;fill-rule:nonzero;fill:#93394a;fill-opacity:1"
       d="M 10.847656 34.292969 L 10.320312 35.5 L 31.75 44.875 L 53.179688 35.5 L 52.652344 34.292969 L 31.75 43.4375 Z M 10.847656 34.292969 "
       id="path36010" />
    <path
       style="stroke:none;fill-rule:nonzero;fill:#5d6967;fill-opacity:1"
       d="M 31.691406 40.304688 L 31.808594 40.304688 C 33.96875 40.304688 35.71875 42.054688 35.71875 44.214844 C 35.71875 46.375 33.96875 48.125 31.808594 48.125 L 31.691406 48.125 C 29.53125 48.125 27.78125 46.375 27.78125 44.214844 C 27.78125 42.054688 29.53125 40.304688 31.691406 40.304688 Z M 31.691406 40.304688 "
       id="path36012" />
    <path
       style="stroke:none;fill-rule:nonzero;fill:#5d6967;fill-opacity:1"
       d="M 10.542969 32.328125 L 10.621094 32.328125 C 12.0625 32.328125 13.230469 33.496094 13.230469 34.933594 C 13.230469 36.375 12.0625 37.542969 10.621094 37.542969 L 10.542969 37.542969 C 9.105469 37.542969 7.9375 36.375 7.9375 34.933594 C 7.9375 33.496094 9.105469 32.328125 10.542969 32.328125 Z M 10.542969 32.328125 "
       id="path36014" />
    <path
       style="stroke:none;fill-rule:nonzero;fill:#5d6967;fill-opacity:1"
       d="M 52.878906 32.328125 L 52.957031 32.328125 C 54.394531 32.328125 55.5625 33.496094 55.5625 34.933594 C 55.5625 36.375 54.394531 37.542969 52.957031 37.542969 L 52.878906 37.542969 C 51.4375 37.542969 50.269531 36.375 50.269531 34.933594 C 50.269531 33.496094 51.4375 32.328125 52.878906 32.328125 Z M 52.878906 32.328125 "
       id="path36016" />
  </g>
</svg>
